X:1
T:The Birthday Song
M:3/4
L:1/8
Q:80
C:Trad., Arr Kent C. Brodie 8/96
S:March
K:HP
e[ | \
{g}A{GdG}AB2{G}A2 | \
{g}d2{gcd}c4 | \
{g}A{GdG}AB2{G}A2 |
{g}e2{Gdc}d4 | \
{g}A{GdG}Aa2{fg}f2 | \
{g}d2{gcd}c2B2- |
B2g{f}g{fg}f2 | \
{g}d2{gef}e2{Gdc}d2- | \
d2|]
